digital-campaign/assets/images/logo/default.svg

<svg height="512" viewBox="0 0 512 512" width="512" xmlns="http://www.w3.org/2000/svg"><g fill="none" fill-rule="evenodd"><circle cx="256" cy="256" fill="#2dcc70" r="256"/><path d="m116.230827 172.141227h-19.3331203v-15.72864h55.3779203v15.72864h-19.33312v100.92544h-16.71168zm47.684266-15.72864h16.71168v49.9712h20.64384v-49.9712h16.71168v116.65408h-16.71168v-51.93728h-20.64384v51.93728h-16.71168zm74.554027 0h16.71168v116.65408h-16.71168zm36.543147 0h16.05632l25.23136 70.28736h.32768v-70.28736h16.71168v116.65408h-15.72864l-25.55904-70.12352h-.32768v70.12352h-16.71168zm77.666986 0h16.71168v53.248h.32768l24.41216-53.248h16.71168l-22.77376 46.6944 27.0336 69.95968h-17.69472l-19.00544-51.77344-9.0112 16.87552v34.89792h-16.71168z" fill="#1b264f"/><path d="m132.233333 365.226667v-72.9h25.5c9.866716.066667 17.266642 4.166626 22.2 12.3 1.766676 2.733347 2.883331 5.599985 3.35 8.6.366669 3.000015.55 8.183296.55 15.55 0 7.833372-.28333 13.299984-.85 16.4-.266668 1.566674-.666664 2.96666-1.2 4.2-.566669 1.200006-1.249996 2.449993-2.05 3.75-2.133344 3.43335-5.099981 6.266655-8.9 8.5-3.766685 2.400012-8.383306 3.6-13.85 3.6zm11.05-62.45v52h13.2c6.200031 0 10.699986-2.116646 13.5-6.35 1.23334-1.566675 2.016665-3.549988 2.35-5.95.300002-2.366679.45-6.799968.45-13.3 0-6.333365-.149998-10.866653-.45-13.6-.400002-2.733347-1.349992-4.949992-2.85-6.65-3.066682-4.233355-7.399972-6.283334-13-6.15zm51.377778 62.45v-51.9h10.45v51.9zm0-62.45v-10.45h10.45v10.45zm52.027778 57c-3.433351 3.900019-7.899973 5.916666-13.4 6.05-3.366684-.066667-6.166656-.783327-8.4-2.15-2.333345-1.300007-4.116661-2.699993-5.35-4.2-1.366674-1.700009-2.349997-3.783321-2.95-6.25-.633337-2.433346-.95-7.066633-.95-13.9 0-6.966702.316663-11.683321.95-14.15.600003-2.433346 1.583326-4.483325 2.95-6.15 1.233339-1.633342 3.016655-3.099994 5.35-4.4 2.233344-1.23334 5.033316-1.883333 8.4-1.95 5.166692 0 9.633314 2.049979 13.4 6.15v-5.5h10.45v50.65c-.133334 7.800039-2.383312 13.533315-6.75 17.2-4.400022 3.766685-9.666636 5.65-15.8 5.65-7.033369-.133334-13.033309-3.033305-18-8.7l8.1-6.45c1.33334 1.233339 2.866658 2.283329 4.6 3.15 1.766675.966671 3.59999 1.483333 5.5 1.55 3.566684 0 6.433322-.983324 8.6-2.95 2.133344-2.00001 3.233333-4.766649 3.3-8.3zm-20.6-20.45c0 3.966686.133332 6.699992.4 8.2.233334 1.566674.783329 2.866661 1.65 3.9.700003.933338 1.766659 1.783329 3.2 2.55 1.366673.933338 3.066656 1.4 5.1 1.4 2.033343 0 3.733326-.466662 5.1-1.4 1.366673-.766671 2.399996-1.616662 3.1-2.55.866671-1.033339 1.449998-2.333326 1.75-3.9.200001-1.500008.3-4.233314.3-8.2 0-4.033354-.099999-6.833326-.3-8.4-.300002-1.566675-.883329-2.833329-1.75-3.8-.700004-.933338-1.733327-1.849996-3.1-2.75-1.366674-.766671-3.066657-1.183333-5.1-1.25-2.033344.066667-3.733327.483329-5.1 1.25-1.433341.900004-2.499997 1.816662-3.2 2.75-.866671.966671-1.416666 2.233325-1.65 3.8-.266668 1.566674-.4 4.366646-.4 8.4zm43.427778 25.9v-51.9h10.45v51.9zm0-62.45v-10.45h10.45v10.45zm23.427777 10.55v-15.8h10.45v15.8h7.6v7.95h-7.6v30.25c-.066667 2.633346 1.166654 3.916667 3.7 3.85h3.9v9.85h-5.45c-3.666685 0-6.666655-1.133322-9-3.4-2.400012-2.166678-3.6-5.29998-3.6-9.4v-31.15h-5.2v-7.95zm53.677778 51.9v-4.6h-.2c-.966671 1.766675-2.466656 3.066662-4.5 3.9-2.00001.866671-4.766649 1.3-8.3 1.3-5.800029-.066667-10.266651-1.599985-13.4-4.6-3.300016-2.933348-4.95-6.683311-4.95-11.25 0-4.366689 1.433319-7.983319 4.3-10.85 2.866681-2.933348 7.066639-4.433333 12.6-4.5h14.45v-5.45c.066667-4.56669-3.483297-6.783334-10.65-6.65-2.600013 0-4.649992.266664-6.15.8-1.566674.633336-2.799995 1.699992-3.7 3.2l-8.2-6.25c3.966687-5.200026 9.816628-7.733334 17.55-7.6 6.533366-.066667 11.749981 1.166654 15.65 3.7 3.90002 2.600013 5.883333 7.066635 5.95 13.4v35.45zm0-18.25v-3.75h-12.5c-6.066697.133334-9.066667 2.216646-9 6.25 0 1.766675.783326 3.26666 2.35 4.5 1.500008 1.366673 3.983316 2.05 7.45 2.05 4.366689.066667 7.449991-.449995 9.25-1.55 1.633342-1.100006 2.45-3.599981 2.45-7.5zm22.527778 5.65v-60.3h10.45v59.5c0 2.366678 1.299987 3.55 3.9 3.55h3.6v9.85h-4.65c-3.800019 0-6.933321-.949991-9.4-2.85-2.600013-1.933343-3.9-5.183311-3.9-9.75z" fill="#fff"/></g></svg>

<?xml version="1.0" encoding="UTF-8" standalone="no"?>
<svg width="512px" height="512px" viewBox="0 0 512 512" version="1.1" xmlns="http://www.w3.org/2000/svg" xmlns:xlink="http://www.w3.org/1999/xlink">
    <!-- Generator: Sketch 49.3 (51167) - http://www.bohemiancoding.com/sketch -->
    <title>Logo</title>
    <desc>Created with Sketch.</desc>
    <defs></defs>
    <g id="Logo" stroke="none" stroke-width="1" fill="none" fill-rule="evenodd">
        <g id="Circle">
            <circle id="Oval" fill="#2DCC70" cx="256" cy="256" r="256"></circle>
            <path d="M116.230827,172.141227 L96.8977067,172.141227 L96.8977067,156.412587 L152.275627,156.412587 L152.275627,172.141227 L132.942507,172.141227 L132.942507,273.066667 L116.230827,273.066667 L116.230827,172.141227 Z M163.915093,156.412587 L180.626773,156.412587 L180.626773,206.383787 L201.270613,206.383787 L201.270613,156.412587 L217.982293,156.412587 L217.982293,273.066667 L201.270613,273.066667 L201.270613,221.129387 L180.626773,221.129387 L180.626773,273.066667 L163.915093,273.066667 L163.915093,156.412587 Z M238.46912,156.412587 L255.1808,156.412587 L255.1808,273.066667 L238.46912,273.066667 L238.46912,156.412587 Z M275.012267,156.412587 L291.068587,156.412587 L316.299947,226.699947 L316.627627,226.699947 L316.627627,156.412587 L333.339307,156.412587 L333.339307,273.066667 L317.610667,273.066667 L292.051627,202.943147 L291.723947,202.943147 L291.723947,273.066667 L275.012267,273.066667 L275.012267,156.412587 Z M352.679253,156.412587 L369.390933,156.412587 L369.390933,209.660587 L369.718613,209.660587 L394.130773,156.412587 L410.842453,156.412587 L388.068693,203.106987 L415.102293,273.066667 L397.407573,273.066667 L378.402133,221.293227 L369.390933,238.168747 L369.390933,273.066667 L352.679253,273.066667 L352.679253,156.412587 Z" id="THINK" fill="#1B264F"></path>
            <path d="M132.233333,365.226667 L132.233333,292.326667 L157.733333,292.326667 C167.600049,292.393334 174.999975,296.493293 179.933333,304.626667 C181.700009,307.360014 182.816664,310.226652 183.283333,313.226667 C183.650002,316.226682 183.833333,321.409963 183.833333,328.776667 C183.833333,336.610039 183.550003,342.076651 182.983333,345.176667 C182.716665,346.743341 182.316669,348.143327 181.783333,349.376667 C181.216664,350.576673 180.533337,351.82666 179.733333,353.126667 C177.599989,356.560017 174.633352,359.393322 170.833333,361.626667 C167.066648,364.026679 162.450027,365.226667 156.983333,365.226667 L132.233333,365.226667 Z M143.283333,302.776667 L143.283333,354.776667 L156.483333,354.776667 C162.683364,354.776667 167.183319,352.660021 169.983333,348.426667 C171.216673,346.859992 171.999998,344.876679 172.333333,342.476667 C172.633335,340.109988 172.783333,335.676699 172.783333,329.176667 C172.783333,322.843302 172.633335,318.310014 172.333333,315.576667 C171.933331,312.84332 170.983341,310.626675 169.483333,308.926667 C166.416651,304.693312 162.083361,302.643333 156.483333,302.776667 L143.283333,302.776667 Z M194.661111,365.226667 L194.661111,313.326667 L205.111111,313.326667 L205.111111,365.226667 L194.661111,365.226667 Z M194.661111,302.776667 L194.661111,292.326667 L205.111111,292.326667 L205.111111,302.776667 L194.661111,302.776667 Z M246.688889,359.776667 C243.255538,363.676686 238.788916,365.693333 233.288889,365.826667 C229.922205,365.76 227.122233,365.04334 224.888889,363.676667 C222.555544,362.37666 220.772228,360.976674 219.538889,359.476667 C218.172215,357.776658 217.188892,355.693346 216.588889,353.226667 C215.955552,350.793321 215.638889,346.160034 215.638889,339.326667 C215.638889,332.359965 215.955552,327.643346 216.588889,325.176667 C217.188892,322.743321 218.172215,320.693342 219.538889,319.026667 C220.772228,317.393325 222.555544,315.926673 224.888889,314.626667 C227.122233,313.393327 229.922205,312.743334 233.288889,312.676667 C238.455581,312.676667 242.922203,314.726646 246.688889,318.826667 L246.688889,313.326667 L257.138889,313.326667 L257.138889,363.976667 C257.005555,371.776706 254.755577,377.509982 250.388889,381.176667 C245.988867,384.943352 240.722253,386.826667 234.588889,386.826667 C227.55552,386.693333 221.55558,383.793362 216.588889,378.126667 L224.688889,371.676667 C226.022229,372.910006 227.555547,373.959996 229.288889,374.826667 C231.055564,375.793338 232.888879,376.31 234.788889,376.376667 C238.355573,376.376667 241.222211,375.393343 243.388889,373.426667 C245.522233,371.426657 246.622222,368.660018 246.688889,365.126667 L246.688889,359.776667 Z M226.088889,339.326667 C226.088889,343.293353 226.222221,346.026659 226.488889,347.526667 C226.722223,349.093341 227.272218,350.393328 228.138889,351.426667 C228.838892,352.360005 229.905548,353.209996 231.338889,353.976667 C232.705562,354.910005 234.405545,355.376667 236.438889,355.376667 C238.472232,355.376667 240.172215,354.910005 241.538889,353.976667 C242.905562,353.209996 243.938885,352.360005 244.638889,351.426667 C245.50556,350.393328 246.088887,349.093341 246.388889,347.526667 C246.58889,346.026659 246.688889,343.293353 246.688889,339.326667 C246.688889,335.293313 246.58889,332.493341 246.388889,330.926667 C246.088887,329.359992 245.50556,328.093338 244.638889,327.126667 C243.938885,326.193329 242.905562,325.276671 241.538889,324.376667 C240.172215,323.609996 238.472232,323.193334 236.438889,323.126667 C234.405545,323.193334 232.705562,323.609996 231.338889,324.376667 C229.905548,325.276671 228.838892,326.193329 228.138889,327.126667 C227.272218,328.093338 226.722223,329.359992 226.488889,330.926667 C226.222221,332.493341 226.088889,335.293313 226.088889,339.326667 Z M269.516667,365.226667 L269.516667,313.326667 L279.966667,313.326667 L279.966667,365.226667 L269.516667,365.226667 Z M269.516667,302.776667 L269.516667,292.326667 L279.966667,292.326667 L279.966667,302.776667 L269.516667,302.776667 Z M292.944444,313.326667 L292.944444,297.526667 L303.394444,297.526667 L303.394444,313.326667 L310.994444,313.326667 L310.994444,321.276667 L303.394444,321.276667 L303.394444,351.526667 C303.327777,354.160013 304.561098,355.443334 307.094444,355.376667 L310.994444,355.376667 L310.994444,365.226667 L305.544444,365.226667 C301.877759,365.226667 298.877789,364.093345 296.544444,361.826667 C294.144432,359.659989 292.944444,356.526687 292.944444,352.426667 L292.944444,321.276667 L287.744444,321.276667 L287.744444,313.326667 L292.944444,313.326667 Z M346.622222,365.226667 L346.622222,360.626667 L346.422222,360.626667 C345.455551,362.393342 343.955566,363.693329 341.922222,364.526667 C339.922212,365.393338 337.155573,365.826667 333.622222,365.826667 C327.822193,365.76 323.355571,364.226682 320.222222,361.226667 C316.922206,358.293319 315.272222,354.543356 315.272222,349.976667 C315.272222,345.609978 316.705541,341.993348 319.572222,339.126667 C322.438903,336.193319 326.638861,334.693334 332.172222,334.626667 L346.622222,334.626667 L346.622222,329.176667 C346.688889,324.609977 343.138925,322.393333 335.972222,322.526667 C333.372209,322.526667 331.32223,322.793331 329.822222,323.326667 C328.255548,323.960003 327.022227,325.026659 326.122222,326.526667 L317.922222,320.276667 C321.888909,315.076641 327.73885,312.543333 335.472222,312.676667 C342.005588,312.61 347.222203,313.843321 351.122222,316.376667 C355.022242,318.97668 357.005555,323.443302 357.072222,329.776667 L357.072222,365.226667 L346.622222,365.226667 Z M346.622222,346.976667 L346.622222,343.226667 L334.122222,343.226667 C328.055525,343.360001 325.055555,345.443313 325.122222,349.476667 C325.122222,351.243342 325.905548,352.743327 327.472222,353.976667 C328.97223,355.34334 331.455538,356.026667 334.922222,356.026667 C339.288911,356.093334 342.372213,355.576672 344.172222,354.476667 C345.805564,353.376661 346.622222,350.876686 346.622222,346.976667 Z M369.15,352.626667 L369.15,292.326667 L379.6,292.326667 L379.6,351.826667 C379.6,354.193345 380.899987,355.376667 383.5,355.376667 L387.1,355.376667 L387.1,365.226667 L382.45,365.226667 C378.649981,365.226667 375.516679,364.276676 373.05,362.376667 C370.449987,360.443324 369.15,357.193356 369.15,352.626667 Z" id="Digital" fill="#FFFFFF"></path>
        </g>
    </g>
</svg>
